X: 39637
T: Temple Hill
R: reel
M: 4/4
K: Gdorian
DG~G2 dGcG|dGcG FGAF|DG~G2 dcde|fdcA FGAF:|
dgg2 afga|fdcA FGAc|dgg2 afga|fdcA AGAc:|
B3G A3F|GBAF GFDC|BGGG AFFF|GBAF GFGA|
B3G A3F|GBAF GFDC|GBAc Bdfd|cAFA GAFA||

